Origami/64x64/apps/flow.svg

<svg width="64" height="64" version="1" xmlns="http://www.w3.org/2000/svg">
 <path d="m4.0000004 56.200069v1.999971c0 1.549978 1.2495821 2.79996 2.80076 2.79996h50.39928c1.549977 0 2.79996-1.249982 2.79996-2.79996v-1.999971c0 1.549977-1.249983 2.79996-2.79996 2.79996h-50.39928c-1.5503779 0-2.79996-1.249983-2.79996-2.79996z" style="opacity:.2"/>
 <rect transform="matrix(0,-1,-1,0,0,0)" x="-60" y="-60" width="55.999" height="55.999" rx="2.8" ry="2.8" style="fill:#4f4f4f"/>
 <path d="m15.999829 18.000629v31.999543h31.999542v-31.999543h-31.999542zm5.999914 5.999914h19.999714v19.999714h-19.999714v-19.999714z" style="fill:#848484"/>
 <rect x="12" y="35" width="20" height="20" style="opacity:.2"/>
 <rect x="12" y="34" width="20" height="20" style="fill:#64b5ff"/>
 <rect x="12" y="15" width="20" height="14" style="opacity:.2"/>
 <rect x="12" y="14" width="20" height="14" style="fill:#e47cff"/>
 <circle cx="44.999" cy="22" r="7" style="opacity:.2"/>
 <circle cx="44.999" cy="21.001" r="7" style="fill:#ff6363"/>
 <rect x="36" y="39" width="16" height="14" style="opacity:.2"/>
 <rect x="36" y="38" width="16" height="14" style="fill:#3bff80"/>
 <path d="m6.8007812 4c-1.5511778 0-2.8007812 1.2496034-2.8007812 2.8007812v1.0019532c0-1.5511778 1.2496034-2.8007813 2.8007812-2.8007813h50.398438c1.549977 0 2.800781 1.2496035 2.800781 2.8007813v-1.0019532c0-1.5511777-1.250804-2.8007812-2.800781-2.8007812h-50.398438z" style="fill:#ffffff;opacity:.1"/>
</svg>

<svg xmlns="http://www.w3.org/2000/svg" width="64" height="64" version="1">
 <path style="opacity:0.2" d="m 4.0000004,56.200069 0,1.999971 c 0,1.549978 1.2495821,2.79996 2.80076,2.79996 L 57.20004,61 C 58.750017,61 60,59.750018 60,58.20004 l 0,-1.999971 c 0,1.549977 -1.249983,2.79996 -2.79996,2.79996 l -50.3992796,0 c -1.5503779,0 -2.79996,-1.249983 -2.79996,-2.79996 z"/>
 <rect style="fill:#4f4f4f" width="55.999" height="55.999" x="-60" y="-60" rx="2.8" ry="2.8" transform="matrix(0,-1,-1,0,0,0)"/>
 <path style="fill:#848484" d="m 15.999829,18.000629 0,31.999543 31.999542,0 0,-31.999543 -31.999542,0 z m 5.999914,5.999914 19.999714,0 0,19.999714 -19.999714,0 0,-19.999714 z"/>
 <rect style="opacity:0.2" width="20" height="20" x="12" y="35"/>
 <rect style="fill:#64b5ff" width="20" height="20" x="12" y="34"/>
 <rect style="opacity:0.2" width="20" height="14" x="12" y="15"/>
 <rect style="fill:#e47cff" width="20" height="14" x="12" y="14"/>
 <circle style="opacity:0.2" cx="44.999" cy="22" r="7"/>
 <circle style="fill:#ff6363" cx="44.999" cy="21.001" r="7"/>
 <rect style="opacity:0.2" width="16" height="14" x="36" y="39"/>
 <rect style="fill:#3bff80" width="16" height="14" x="36" y="38"/>
 <path style="opacity:0.1;fill:#ffffff" d="M 6.8007812 4 C 5.2496034 4 4 5.2496034 4 6.8007812 L 4 7.8027344 C 4 6.2515566 5.2496034 5.0019531 6.8007812 5.0019531 L 57.199219 5.0019531 C 58.749196 5.0019531 60 6.2515566 60 7.8027344 L 60 6.8007812 C 60 5.2496035 58.749196 4 57.199219 4 L 6.8007812 4 z"/>
</svg>
